X: 1022
T: Hicaz Sazsemâîsi
C: Muhittin Erev
O: Turkey
F: http://compmusic.upf.edu/node/140
N: hicaz--sazsemaisi--aksaksemai----muhittin_erev
N: makam= hicaz
N: form= sazsemaisi
N: usul= aksaksemai = 10/8
M: 10/8
L: 1/16
K: C _7/8B ^f ^c 
Q: 1/4=144
%%MIDI tuningsystem comma53
G4 A2AB AGcB AGd4e2  | =f4 e2dc dec2 BAA4B2  | 
w:  1. HANE  |   | 
c2d2 e2fe fgfe d2e2 f2a2  | g4 gff3eg2 fee4z2  | 
w:   |   | 
d4 a2a2 gf=b2 aggf e4  | g4 fefe fgag =fed4z2  | 
w:     TESLİM   |   | 
=f4 ede^f gag=f edc2 B2A2  | =f4 edc3dcB BAA4z2  | 
w:   |   | 
d4 a2a2 gf=b2 aggf e4  | g4 fefe fgag =fed4z2  | 
w:     TESLİM   |   | 
=f4 ede^f gag=f edc2 B2A2  | =f4 edc3dcB BAA4z2  | 
w:   |   | 
e4 e2e3ded =cde6  | =c2=B2 A2d2 cBBA A^GA2 B2c2  | 
w:  2. HANE  |   | 
=f4 e^de2 ^f2^g2 a=bg2 f2e2  | =c'4 =bad'c' ba^gf fee4z2  | 
w:   |   | 
d4 a2a2 gf=b2 aggf e4  | g4 fefe fgag =fed4z2  | 
w:     TESLİM   |   | 
=f4 ede^f gag=f edc2 B2A2  | =f4 edc3dcB BAA4z2  | 
w:   |   | 
d4 a2a2 gf=b2 aggf e4  | g4 fefe fgag =fed4z2  | 
w:     TESLİM   |   | 
=f4 ede^f gag=f edc2 B2A2  | =f4 edc3dcB BAA4z2  | 
w:   |   | 
f4 f2f3^ed2 def4a2  | g4 f2=b2 agag f^ed4cd  | 
w:  3. HANE  |   | 
e4 f2g2 a2g2 f2f2 e2d2  | =c'4 =bag2 gagf fee4z2  | 
w:   |   | 
d4 a2a2 gf=b2 aggf e4  | g4 fefe fgag =fed4z2  | 
w:     TESLİM   |   | 
=f4 ede^f gag=f edc2 B2A2  | =f4 edc3dcB BAA4z2  | 
w:   |   | 
d4 a2a2 gf=b2 aggf e4  | g4 fefe fgag =fed4z2  | 
w:     TESLİM   |   | 
=f4 ede^f gag=f edc2 B2A2  | =f4 edc3dcB BAA4z2  | 
w:   |   | 
z12  | A8A4  | d8c4  | d4c4e2d2  | d12  | =f8e4  | \
w:  |  4. HANE  |   |   |   |   | 
g8=f2e2  | d4c4d4  | e12  | a8a4  | 
w:   |   |   |   | 
a8g4  | g4f4f2e2  | d12  | e4f4g4  | a2=b2a4g4  | \
w:   |   |   |   |   | 
g4f4f2e2  | e12  | A8A4  | 
w:   |   |  4. HANE  | 
d8c4  | d4c4e2d2  | d12  | =f8e4  | g8=f2e2  | \
w:   |   |   |   |   | 
d4c4d4  | e12  | a8a4  | a8g4  | g4f4f2e2  | 
w:   |   |   |   |   | 
d12  | e4f4g4  | a2=b2a4g4  | g4f4f2e2  | e12  | \
w:   |   |   |   |   | 
d2c2d2e2f2g2  | a8g4  | 
w:   |   | 
g4f4e4  | d12  | g4=f4e4  | d2c2B4d4  | c12  | \
w:   |   |   |   |   | 
G8A4  | A8B4  | d2c2B2A2G2F2  | 
w:   |   |   | 
G12  | A4B4d4  | c8A4  | B8G4  | A12  | A8z4  | z20  | \
w:   |   |   |   |   |   |  | 
d4 a2a2 gf=b2 aggf e4  | 
w:     TESLİM   | 
g4 fefe fgag =fed4z2  | =f4 ede^f gag=f edc2 B2A2  | 
w:   |   | 
=f4 edc3dcB BAA4z2  | d4 a2a2 gf=b2 aggf e4  | 
w:   |     TESLİM   | 
g4 fefe fgag =fed4z2  | =f4 ede^f gag=f edc2 B2A2  | 
w:   |   | 
=f4 edc3dcB BAA4z2  | |


